X:1
T:Title
%%score { 1 | ( 2 3 ) }
L:1/8
Q:1/4=100
M:4/4
K:Eb
V:1 treble nm="Grand Piano"
V:2 bass 
V:3 bass 
V:1
 B2 cB G3 E | F2 A2 G3 B | c2 c2 B2 G2 | [DF]6 z2 | B2 cB [Ge]2 [Bd]2 | [Bd]3 c c4 | c2 =Bc e2 c2 | %7
w: P.~M.~Dixon * * * *|||||||
 [Ac]3 [GB] [GB]2 [EB]2 | [DB]2 [B,DF]2 [CDA]3 [B,DG] | [B,EG]6 [B,=EG]2 | A2 C2 D3 B | B6 z2 | %12
w: |||||
 B2 cB G3 E | [DF]2 G4 z2 | B2 =AB c2 d2 | [Ge]6 z2 | [=Ae]2 [Ae][Ae] [Fd]3 [Ec] | %17
w: |||||
 [DB]2 [EG]4 [=EG]2 | A2 C2 D3 B | B6 z2 |] %20
w: |||
V:2
 [E,G,E]2 [E,A,E][E,G,E] [E,B,E]3 [E,G,] | [E,A,E]2 [E,=B,E]2 [E,_B,E]3 [E,G,E] | %2
 [E,A,E]2 [E,A,E]2 [E,G,E]2 [E,B,E]2 | [B,,B,]6 z2 | [E,G,E]2 [E,A,E][E,G,E] [D,B,]2 [E,E]2 | %5
 [A,E]3 [A,EA] [A,EA]4 | [A,EA]2 [A,A]-[A,EA] [A,CA]2 [A,EA]2 | [E,E]3 [E,E] [E,E]2 [E,G,]2 | %8
 [B,,A,]2 B,,2 B,,3 B,, | E,6 C,2 | [F,CF]2 [F,A,]2 [B,,A,B,]3 [E,G,E] | [E,G,E]6 z2 | %12
 [E,G,E]2 [E,A,E][E,G,E] [E,B,E]3 [E,G,] | [B,,B,]2 [E,B,E]4 z2 | %14
 [E,G,E]2 [E,_G,E][E,=G,E] [E,A,E]2 [G,=B,F]2 | [C,C]6 z2 | [F,C]2 [F,C][F,C] [F,B,]3 [F,A,] | %17
 [B,,B,]2 [E,B,]4 [C,B,]2 | [F,CF]2 [F,A,]2 [B,,A,B,]3 [E,G,E] | [E,G,E]6 z2 |] %20
V:3
 x8 | x8 | x8 | x8 | x8 | x8 | z2 .D2 z4 | x8 | x8 | x8 | x8 | x8 | x8 | x8 | x8 | x8 | x8 | x8 | %18
 x8 | x8 |] %20

